austria/municipalities/40431.svg

<?xml version="1.0" encoding="UTF-8"?>
<!DOCTYPE svg PUBLIC "-//W3C//DTD SVG 1.1//EN" "http://www.w3.org/Graphics/SVG/1.1/DTD/svg11.dtd">
<svg xmlns="http://www.w3.org/2000/svg" version="1.1" width="166px" height="207px" style="shape-rendering:geometricPrecision; text-rendering:geometricPrecision; image-rendering:optimizeQuality; fill-rule:evenodd; clip-rule:evenodd" xmlns:xlink="http://www.w3.org/1999/xlink">
<g><path style="opacity:1" fill="#000000" d="M -0.5,-0.5 C 54.8333,-0.5 110.167,-0.5 165.5,-0.5C 165.5,43.8333 165.5,88.1667 165.5,132.5C 159.745,165.461 141.411,188.628 110.5,202C 105.336,203.369 100.336,204.869 95.5,206.5C 86.8333,206.5 78.1667,206.5 69.5,206.5C 29.5404,196.538 6.20705,171.205 -0.5,130.5C -0.5,86.8333 -0.5,43.1667 -0.5,-0.5 Z"/></g>
<g><path style="opacity:1" fill="#006632" d="M 3.5,3.5 C 13.8333,3.5 24.1667,3.5 34.5,3.5C 35.44,7.46308 35.6067,11.4631 35,15.5C 31.4953,22.6736 28.9953,30.1736 27.5,38C 29.2948,45.7181 31.2948,53.3848 33.5,61C 31.508,70.6291 29.8413,80.2957 28.5,90C 30.1006,100.171 31.7673,110.338 33.5,120.5C 31.7594,130.87 29.7594,141.204 27.5,151.5C 29.4266,158.117 31.2599,164.784 33,171.5C 33.8673,175.956 33.5339,180.289 32,184.5C 16.9595,171.091 7.62621,154.424 4,134.5C 3.50001,90.8346 3.33334,47.1679 3.5,3.5 Z"/></g>
<g><path style="opacity:1" fill="#fefffe" d="M 36.5,3.5 C 41.0089,4.29672 43.0089,7.13005 42.5,12C 39.8575,20.9029 37.5241,29.9029 35.5,39C 37.406,46.4565 39.0727,53.9565 40.5,61.5C 39.2054,71.4731 37.2054,81.3065 34.5,91C 37.5386,100.65 39.5386,110.483 40.5,120.5C 40.3333,123.5 40.1667,126.5 40,129.5C 37.3835,136.299 35.5502,143.299 34.5,150.5C 37.1305,160.358 39.1305,170.358 40.5,180.5C 40.7048,183.795 39.8715,186.795 38,189.5C 35.8746,188.516 34.7079,186.85 34.5,184.5C 35.4647,180.191 35.6313,175.857 35,171.5C 33.3084,164.62 31.475,157.787 29.5,151C 32.232,140.638 34.232,130.138 35.5,119.5C 33.933,109.638 32.2664,99.8047 30.5,90C 31.8453,80.2839 33.5119,70.6172 35.5,61C 33.6473,53.461 31.6473,45.961 29.5,38.5C 30.898,30.8064 33.398,23.473 37,16.5C 37.6292,12.1294 37.4625,7.79602 36.5,3.5 Z"/></g>
<g><path style="opacity:1" fill="#003266" d="M 42.5,3.5 C 71.8352,3.33335 101.169,3.50002 130.5,4C 131.126,4.75044 131.626,5.58377 132,6.5C 132.667,10.8333 132.667,15.1667 132,19.5C 129.294,25.8249 127.127,32.3249 125.5,39C 128.043,46.3353 129.71,53.8353 130.5,61.5C 129.286,71.7382 127.619,81.9049 125.5,92C 127.825,101.461 129.825,110.961 131.5,120.5C 130.031,130.874 127.698,141.041 124.5,151C 129.209,162.722 130.876,174.888 129.5,187.5C 111.283,200.636 90.9501,205.469 68.5,202C 58.1086,200.129 48.7753,196.129 40.5,190C 42.2879,184.954 42.7879,179.788 42,174.5C 40.0861,166.345 38.2528,158.178 36.5,150C 37.9191,143.073 39.7524,136.24 42,129.5C 42.6667,123.167 42.6667,116.833 42,110.5C 39.5541,104.049 38.0541,97.3826 37.5,90.5C 39.2326,81.0045 40.8993,71.5045 42.5,62C 41.1518,54.1161 39.4851,46.2828 37.5,38.5C 39.155,31.0332 41.3216,23.6999 44,16.5C 44.731,12.0156 44.231,7.68223 42.5,3.5 Z"/></g>
<g><path style="opacity:1" fill="#fefffe" d="M 132.5,4.5 C 134.223,3.19299 136.057,3.19299 138,4.5C 138.958,7.07472 139.458,9.74139 139.5,12.5C 138.167,21.158 135.834,29.4913 132.5,37.5C 134.193,45.4131 136.193,53.2465 138.5,61C 136.656,71.0395 134.656,81.0395 132.5,91C 134.978,100.912 136.978,110.912 138.5,121C 136.489,131.04 134.156,141.04 131.5,151C 133.756,159.612 135.756,168.279 137.5,177C 137.306,180.213 135.806,182.713 133,184.5C 132.437,172.85 130.27,161.516 126.5,150.5C 129.777,140.725 132.11,130.725 133.5,120.5C 132.059,110.898 130.059,101.398 127.5,92C 129.652,82.0645 131.319,72.0645 132.5,62C 131.79,54.1567 130.123,46.4901 127.5,39C 128.675,32.484 130.841,26.3173 134,20.5C 134.667,15.8333 134.667,11.1667 134,6.5C 133.722,5.5842 133.222,4.91753 132.5,4.5 Z"/></g>
<g><path style="opacity:1" fill="#006632" d="M 139.5,4.5 C 146.648,3.50837 153.981,3.17503 161.5,3.5C 161.667,47.8346 161.5,92.1679 161,136.5C 157.781,152.197 150.781,165.864 140,177.5C 137.961,168.304 135.794,159.137 133.5,150C 135.277,142.395 137.443,134.895 140,127.5C 140.167,125.167 140.333,122.833 140.5,120.5C 139.104,110.377 137.104,100.377 134.5,90.5C 137.016,80.7818 139.016,70.9485 140.5,61C 138.602,53.14 136.602,45.3067 134.5,37.5C 136.396,31.0929 138.563,24.7595 141,18.5C 141.667,14.8333 141.667,11.1667 141,7.5C 140.768,6.26253 140.268,5.26253 139.5,4.5 Z"/></g>
<g><path style="opacity:1" fill="#000000" d="M 81.5,13.5 C 84.6973,14.1124 86.0306,16.1124 85.5,19.5C 89.4735,20.0755 90.4735,22.2421 88.5,26C 87.552,26.4828 86.552,26.6495 85.5,26.5C 85.5,28.5 85.5,30.5 85.5,32.5C 87.6547,32.372 89.6547,32.872 91.5,34C 97.5,39.3333 103.5,44.6667 109.5,50C 110.472,62.0451 110.472,74.2118 109.5,86.5C 103.833,90.5 98.1667,94.5 92.5,98.5C 91.5004,116.821 91.1671,135.155 91.5,153.5C 93.1439,153.286 94.6439,153.62 96,154.5C 96.0475,157.329 97.0475,159.663 99,161.5C 99.4966,163.81 99.6633,166.143 99.5,168.5C 101.467,168.261 103.301,168.594 105,169.5C 105.769,172.099 105.602,174.599 104.5,177C 89.8333,177.667 75.1667,177.667 60.5,177C 59.3977,174.599 59.231,172.099 60,169.5C 61.6995,168.594 63.5328,168.261 65.5,168.5C 65.3367,166.143 65.5034,163.81 66,161.5C 67.9525,159.663 68.9525,157.329 69,154.5C 70.3561,153.62 71.8561,153.286 73.5,153.5C 73.8329,135.155 73.4996,116.821 72.5,98.5C 66.6579,94.7459 60.9913,90.7459 55.5,86.5C 54.5282,74.2118 54.5282,62.0451 55.5,50C 61.5,44.6667 67.5,39.3333 73.5,34C 75.3453,32.872 77.3453,32.372 79.5,32.5C 79.5,30.5 79.5,28.5 79.5,26.5C 78.1667,26.5 76.8333,26.5 75.5,26.5C 75.3379,24.4727 75.5045,22.4727 76,20.5C 77.0113,19.6634 78.1779,19.33 79.5,19.5C 79.2587,17.1137 79.9254,15.1137 81.5,13.5 Z"/></g>
<g><path style="opacity:1" fill="#fe9900" d="M 81.5,16.5 C 83.256,17.5521 83.9227,19.2188 83.5,21.5C 84.8333,21.5 86.1667,21.5 87.5,21.5C 87.5,22.5 87.5,23.5 87.5,24.5C 86.1667,24.5 84.8333,24.5 83.5,24.5C 82.8333,35.1667 82.1667,35.1667 81.5,24.5C 80.1667,24.5 78.8333,24.5 77.5,24.5C 77.5,23.5 77.5,22.5 77.5,21.5C 78.8333,21.5 80.1667,21.5 81.5,21.5C 81.5,19.8333 81.5,18.1667 81.5,16.5 Z"/></g>
<g><path style="opacity:1" fill="#fe9900" d="M 75.5,34.5 C 76.8734,34.3433 78.2068,34.51 79.5,35C 76.2506,39.4968 73.2506,44.1635 70.5,49C 67.1177,49.8236 63.7844,49.657 60.5,48.5C 65.5464,43.7836 70.5464,39.1169 75.5,34.5 Z"/></g>
<g><path style="opacity:1" fill="#fe9900" d="M 81.5,34.5 C 83.0174,34.5106 84.1841,35.1772 85,36.5C 86.9657,40.6262 89.1324,44.6262 91.5,48.5C 85.5,49.8333 79.5,49.8333 73.5,48.5C 76.1904,43.7786 78.857,39.1119 81.5,34.5 Z"/></g>
<g><path style="opacity:1" fill="#fe9900" d="M 85.5,35.5 C 86.6009,34.4017 87.9343,34.235 89.5,35C 94.8012,39.2998 99.8012,43.9664 104.5,49C 101.167,49.6667 97.8333,49.6667 94.5,49C 91.3526,44.5206 88.3526,40.0206 85.5,35.5 Z"/></g>
<g><path style="opacity:1" fill="#fe9900" d="M 58.5,50.5 C 74.5,50.5 90.5,50.5 106.5,50.5C 106.5,52.5 106.5,54.5 106.5,56.5C 90.5,56.5 74.5,56.5 58.5,56.5C 58.5,54.5 58.5,52.5 58.5,50.5 Z"/></g>
<g><path style="opacity:1" fill="#fe9900" d="M 55.5,58.5 C 60.1667,58.5 64.8333,58.5 69.5,58.5C 69.5,67.1667 69.5,75.8333 69.5,84.5C 64.8333,84.5 60.1667,84.5 55.5,84.5C 55.5,75.8333 55.5,67.1667 55.5,58.5 Z"/></g>
<g><path style="opacity:1" fill="#fe9900" d="M 71.5,58.5 C 78.8333,58.5 86.1667,58.5 93.5,58.5C 93.5,67.1667 93.5,75.8333 93.5,84.5C 86.1667,84.5 78.8333,84.5 71.5,84.5C 71.5,75.8333 71.5,67.1667 71.5,58.5 Z"/></g>
<g><path style="opacity:1" fill="#fe9900" d="M 95.5,58.5 C 99.8333,58.5 104.167,58.5 108.5,58.5C 108.5,67.1667 108.5,75.8333 108.5,84.5C 104.167,84.5 99.8333,84.5 95.5,84.5C 95.5,75.8333 95.5,67.1667 95.5,58.5 Z"/></g>
<g><path style="opacity:1" fill="#fe9900" d="M 59.5,87.5 C 74.6611,86.3388 89.9945,86.1721 105.5,87C 101.217,89.6153 97.2171,92.6153 93.5,96C 86.1667,96.6667 78.8333,96.6667 71.5,96C 67.8982,92.5587 63.8982,89.7253 59.5,87.5 Z"/></g>
<g><path style="opacity:1" fill="#fe9900" d="M 75.5,98.5 C 80.1667,98.5 84.8333,98.5 89.5,98.5C 89.5,100.167 89.5,101.833 89.5,103.5C 84.8333,103.5 80.1667,103.5 75.5,103.5C 75.5,101.833 75.5,100.167 75.5,98.5 Z"/></g>
<g><path style="opacity:1" fill="#fe9900" d="M 75.5,105.5 C 80.1667,105.5 84.8333,105.5 89.5,105.5C 89.5,121.5 89.5,137.5 89.5,153.5C 84.8333,153.5 80.1667,153.5 75.5,153.5C 75.5,137.5 75.5,121.5 75.5,105.5 Z"/></g>
<g><path style="opacity:1" fill="#fefffe" d="M -0.5,130.5 C 6.20705,171.205 29.5404,196.538 69.5,206.5C 46.1667,206.5 22.8333,206.5 -0.5,206.5C -0.5,181.167 -0.5,155.833 -0.5,130.5 Z"/></g>
<g><path style="opacity:1" fill="#fefffe" d="M 165.5,132.5 C 165.5,157.167 165.5,181.833 165.5,206.5C 142.167,206.5 118.833,206.5 95.5,206.5C 100.336,204.869 105.336,203.369 110.5,202C 141.411,188.628 159.745,165.461 165.5,132.5 Z"/></g>
<g><path style="opacity:1" fill="#fe9900" d="M 70.5,155.5 C 78.5,155.5 86.5,155.5 94.5,155.5C 94.5,157.167 94.5,158.833 94.5,160.5C 86.5,160.5 78.5,160.5 70.5,160.5C 70.5,158.833 70.5,157.167 70.5,155.5 Z"/></g>
<g><path style="opacity:1" fill="#fe9900" d="M 67.5,162.5 C 77.5,162.5 87.5,162.5 97.5,162.5C 97.5,164.167 97.5,165.833 97.5,167.5C 87.5,167.5 77.5,167.5 67.5,167.5C 67.5,165.833 67.5,164.167 67.5,162.5 Z"/></g>
<g><path style="opacity:1" fill="#fe9900" d="M 61.5,169.5 C 75.5,169.5 89.5,169.5 103.5,169.5C 103.5,171.5 103.5,173.5 103.5,175.5C 89.5,175.5 75.5,175.5 61.5,175.5C 61.5,173.5 61.5,171.5 61.5,169.5 Z"/></g>
</svg>

<svg xmlns="http://www.w3.org/2000/svg" width="166" height="207" style="shape-rendering:geometricPrecision;text-rendering:geometricPrecision;image-rendering:optimizeQuality;fill-rule:evenodd;clip-rule:evenodd"><path style="opacity:1" d="M-.5-.5h166v133c-5.755 32.961-24.089 56.128-55 69.5a236.853 236.853 0 0 0-15 4.5h-26c-39.96-9.962-63.293-35.295-70-76V-.5z"/><path style="opacity:1" fill="#006632" d="M3.5 3.5h31a31.343 31.343 0 0 1 .5 12A89.144 89.144 0 0 0 27.5 38a445.223 445.223 0 0 0 6 23 441.498 441.498 0 0 0-5 29 2415.64 2415.64 0 0 0 5 30.5 635.038 635.038 0 0 1-6 31 695.981 695.981 0 0 1 5.5 20c.867 4.456.534 8.789-1 13-15.04-13.409-24.374-30.076-28-50-.5-43.665-.667-87.332-.5-131z"/><path style="opacity:1" fill="#fefffe" d="M36.5 3.5c4.509.797 6.509 3.63 6 8.5a400.731 400.731 0 0 0-7 27 364.33 364.33 0 0 1 5 22.5 210.31 210.31 0 0 1-6 29.5 143.653 143.653 0 0 1 6 29.5l-.5 9a97.445 97.445 0 0 0-5.5 21 241.69 241.69 0 0 1 6 30c.205 3.295-.629 6.295-2.5 9-2.125-.984-3.292-2.65-3.5-5a35.633 35.633 0 0 0 .5-13 504.277 504.277 0 0 0-5.5-20.5 230.346 230.346 0 0 0 6-31.5 1447.458 1447.458 0 0 0-5-29.5 444.049 444.049 0 0 1 5-29 593.165 593.165 0 0 0-6-22.5 78.103 78.103 0 0 1 7.5-22c.63-4.37.462-8.704-.5-13z"/><path style="opacity:1" fill="#003266" d="M42.5 3.5c29.335-.167 58.669 0 88 .5a9.457 9.457 0 0 1 1.5 2.5 42.479 42.479 0 0 1 0 13 124.364 124.364 0 0 0-6.5 19.5 99.668 99.668 0 0 1 5 22.5 347.701 347.701 0 0 1-5 30.5 433.703 433.703 0 0 1 6 28.5 183.918 183.918 0 0 1-7 30.5c4.709 11.722 6.376 23.888 5 36.5-18.217 13.136-38.55 17.969-61 14.5-10.391-1.871-19.725-5.871-28-12 1.788-5.046 2.288-10.212 1.5-15.5a1295.55 1295.55 0 0 1-5.5-24.5 177.105 177.105 0 0 1 5.5-20.5 90.496 90.496 0 0 0 0-19 72.557 72.557 0 0 1-4.5-20c1.733-9.496 3.4-18.996 5-28.5a298.906 298.906 0 0 0-5-23.5 166.142 166.142 0 0 1 6.5-22c.731-4.484.231-8.818-1.5-13z"/><path style="opacity:1" fill="#fefffe" d="M132.5 4.5c1.723-1.307 3.557-1.307 5.5 0a23.814 23.814 0 0 1 1.5 8 107.278 107.278 0 0 1-7 25 309.205 309.205 0 0 0 6 23.5 970.71 970.71 0 0 1-6 30 321.186 321.186 0 0 1 6 30 489.568 489.568 0 0 1-7 30 453.545 453.545 0 0 1 6 26c-.194 3.213-1.694 5.713-4.5 7.5a122.796 122.796 0 0 0-6.5-34 163.431 163.431 0 0 0 7-30 249.103 249.103 0 0 0-6-28.5 315.132 315.132 0 0 0 5-30 95.34 95.34 0 0 0-5-23 61.326 61.326 0 0 1 6.5-18.5 49.226 49.226 0 0 0 0-14c-.278-.916-.778-1.582-1.5-2z"/><path style="opacity:1" fill="#006632" d="M139.5 4.5c7.148-.992 14.481-1.325 22-1 .167 44.335 0 88.668-.5 133-3.219 15.697-10.219 29.364-21 41a1016.986 1016.986 0 0 0-6.5-27.5 226.531 226.531 0 0 1 6.5-22.5l.5-7a253.316 253.316 0 0 0-6-30 285.938 285.938 0 0 0 6-29.5 930.029 930.029 0 0 0-6-23.5 240.284 240.284 0 0 1 6.5-19 30.485 30.485 0 0 0 0-11c-.232-1.237-.732-2.237-1.5-3z"/><path style="opacity:1" d="M81.5 13.5c3.197.612 4.53 2.612 4 6 3.974.576 4.974 2.742 3 6.5a4.932 4.932 0 0 1-3 .5v6a10.1 10.1 0 0 1 6 1.5l18 16c.972 12.045.972 24.212 0 36.5l-17 12a757.1 757.1 0 0 0-1 55c1.644-.214 3.144.12 4.5 1 .047 2.829 1.047 5.163 3 7 .497 2.31.663 4.643.5 7 1.967-.239 3.801.094 5.5 1 .769 2.599.602 5.099-.5 7.5a484.008 484.008 0 0 1-44 0c-1.102-2.401-1.269-4.901-.5-7.5 1.7-.906 3.533-1.239 5.5-1-.163-2.357.003-4.69.5-7 1.953-1.837 2.953-4.171 3-7 1.356-.88 2.856-1.214 4.5-1a757.1 757.1 0 0 0-1-55 239.042 239.042 0 0 1-17-12c-.972-12.288-.972-24.455 0-36.5l18-16a10.1 10.1 0 0 1 6-1.5v-6h-4a18.436 18.436 0 0 1 .5-6c1.011-.837 2.178-1.17 3.5-1-.241-2.386.425-4.386 2-6z"/><path style="opacity:1" fill="#fe9900" d="M81.5 16.5c1.756 1.052 2.423 2.719 2 5h4v3h-4c-.667 10.667-1.333 10.667-2 0h-4v-3h4v-5zM75.5 34.5a8.434 8.434 0 0 1 4 .5 153.166 153.166 0 0 0-9 14c-3.382.824-6.716.657-10-.5 5.046-4.716 10.046-9.383 15-14z"/><path style="opacity:1" fill="#fe9900" d="M81.5 34.5c1.517.01 2.684.677 3.5 2a131.176 131.176 0 0 0 6.5 12c-6 1.333-12 1.333-18 0 2.69-4.721 5.357-9.388 8-14zM85.5 35.5c1.1-1.098 2.434-1.265 4-.5a148.29 148.29 0 0 1 15 14 25.249 25.249 0 0 1-10 0 327.29 327.29 0 0 1-9-13.5zM58.5 50.5h48v6h-48v-6zM55.5 58.5h14v26h-14v-26zM71.5 58.5h22v26h-22v-26zM95.5 58.5h13v26h-13v-26zM59.5 87.5c15.161-1.161 30.495-1.328 46-.5a78.708 78.708 0 0 0-12 9c-7.333.667-14.667.667-22 0a49.895 49.895 0 0 0-12-8.5zM75.5 98.5h14v5h-14v-5zM75.5 105.5h14v48h-14v-48z"/><path style="opacity:1" fill="#fefffe" d="M-.5 130.5c6.707 40.705 30.04 66.038 70 76h-70v-76zM165.5 132.5v74h-70a236.853 236.853 0 0 1 15-4.5c30.911-13.372 49.245-36.539 55-69.5z"/><path style="opacity:1" fill="#fe9900" d="M70.5 155.5h24v5h-24v-5zM67.5 162.5h30v5h-30v-5zM61.5 169.5h42v6h-42v-6z"/></svg>
